resources/haticons/SVG/gift.svg

<!-- Generated by IcoMoon.io -->
<svg version="1.1" xmlns="http://www.w3.org/2000/svg" width="24" height="24" viewBox="0 0 24 24">
<title>gift</title>
<path d="M18.082 7.5c0.425-0.302 0.832-0.638 1.206-1.011 0.783-0.783 1.307-1.746 1.475-2.712 0.184-1.059-0.086-2.042-0.741-2.698-0.523-0.523-1.231-0.799-2.048-0.799-1.163 0-2.389 0.558-3.362 1.532-1.558 1.558-2.466 3.709-2.955 5.243-0.362-1.542-1.083-3.624-2.485-5.026-0.752-0.752-1.714-1.138-2.621-1.138-0.742 0-1.448 0.258-1.975 0.785-1.172 1.172-1.013 3.229 0.354 4.596 0.487 0.487 1.057 0.892 1.658 1.228h-5.087v6h1.5v10.5h18v-10.5h1.5v-6h-4.418zM15.805 3.005c0.65-0.65 1.461-1.038 2.169-1.038 0.251 0 0.603 0.053 0.854 0.305 0.61 0.61 0.267 2.023-0.733 3.023-1.030 1.030-2.415 1.738-3.619 2.205h-1.188c0.435-1.349 1.22-3.198 2.517-4.495zM5.483 3.771c-0.016-0.214-0.001-0.615 0.286-0.902 0.24-0.24 0.558-0.291 0.782-0.291v0c0.498 0 1.019 0.235 1.428 0.644 0.794 0.794 1.448 2.057 1.891 3.653 0.012 0.043 0.024 0.086 0.035 0.129-0.043-0.011-0.085-0.023-0.129-0.035-1.596-0.443-2.859-1.097-3.653-1.891-0.371-0.371-0.604-0.848-0.639-1.307zM10.5 22.5h-6v-9.75h6v9.75zM10.5 12h-7.5v-3h7.5v3zM19.5 22.5h-6v-9.75h6v9.75zM21 12h-7.5v-3h7.5v3z"></path>
</svg>

<svg xmlns="http://www.w3.org/2000/svg" width="24" height="24"><path d="M18.082 7.5a9.486 9.486 0 0 0 1.206-1.011c.783-.783 1.307-1.746 1.475-2.712.184-1.059-.086-2.042-.741-2.698C19.499.556 18.791.28 17.974.28c-1.163 0-2.389.558-3.362 1.532-1.558 1.558-2.466 3.709-2.955 5.243-.362-1.542-1.083-3.624-2.485-5.026C8.42 1.277 7.458.891 6.551.891c-.742 0-1.448.258-1.975.785-1.172 1.172-1.013 3.229.354 4.596A7.536 7.536 0 0 0 6.588 7.5H1.501v6h1.5V24h18V13.5h1.5v-6h-4.418zm-2.277-4.495c.65-.65 1.461-1.038 2.169-1.038.251 0 .603.053.854.305.61.61.267 2.023-.733 3.023-1.03 1.03-2.415 1.738-3.619 2.205h-1.188c.435-1.349 1.22-3.198 2.517-4.495zm-10.322.766c-.016-.214-.001-.615.286-.902.24-.24.558-.291.782-.291.498 0 1.019.235 1.428.644.794.794 1.448 2.057 1.891 3.653l.035.129-.129-.035C8.18 6.526 6.917 5.872 6.123 5.078c-.371-.371-.604-.848-.639-1.307zM10.5 22.5h-6v-9.75h6v9.75zm0-10.5H3V9h7.5v3zm9 10.5h-6v-9.75h6v9.75zM21 12h-7.5V9H21v3z"/></svg>
